assets/images/footer_decoration.svg

<svg width="323" height="297" viewBox="0 0 323 297" fill="none" xmlns="http://www.w3.org/2000/svg">
<g clip-path="url(#clip0)">
<path d="M267.534 79.1651H255.238V60.1112C255.323 60.1112 255.409 60.1254 255.501 60.1254C259.088 60.1254 261.998 57.2045 261.998 53.6051C261.998 50.0057 259.088 47.0848 255.501 47.0848C255.416 47.0848 255.331 47.0919 255.238 47.0991V40.6002H255.06V37.7578C255.06 33.1443 251.339 29.4092 246.742 29.4092H217.874V54.8549C217.874 64.2819 224.84 72.0734 233.891 73.3375V79.1651H226.441C220.464 79.1651 214.764 81.7075 210.758 86.1639L165.93 136.063L171.686 135.584C176.169 131.421 182.096 129.035 188.344 129.035H282.334L288.055 105.339C291.272 92.0058 281.21 79.1651 267.534 79.1651Z" fill="#FED141"/>
<path d="M50.2935 103.825C50.2864 103.732 50.2793 103.632 50.2721 103.539C50.2508 103.297 50.2295 103.061 50.201 102.818C50.1868 102.725 50.1796 102.64 50.1654 102.547C50.0729 101.911 49.9448 101.283 49.7812 100.669C49.7598 100.59 49.7385 100.511 49.7171 100.433C49.646 100.19 49.5748 99.9543 49.4965 99.7115C49.4752 99.6401 49.4538 99.5758 49.4254 99.5044C49.2119 98.8974 48.9629 98.3118 48.6782 97.7404C48.6498 97.6904 48.6284 97.6404 48.6 97.5833C48.4719 97.3334 48.3367 97.0905 48.2015 96.8477C48.1801 96.812 48.1588 96.7763 48.1375 96.7406C47.803 96.1764 47.4401 95.6336 47.0416 95.1194C47.0203 95.098 47.0061 95.0695 46.9847 95.048C46.7926 94.7981 46.5934 94.5553 46.3799 94.3196C46.3728 94.3124 46.3657 94.3053 46.3585 94.2982C46.0312 93.9268 45.6826 93.5768 45.3197 93.2412C47.7034 90.9701 49.1906 87.7707 49.1906 84.2141C49.1906 77.3296 43.6333 71.752 36.7738 71.752C29.9143 71.752 24.357 77.3296 24.357 84.2141C24.357 88.1992 26.2284 91.7414 29.1316 94.0196C26.2711 95.0766 23.1829 95.6694 19.9524 95.6694H13.3349C8.53894 95.6694 4.38341 92.927 2.34122 88.9205C1.50158 91.3844 1.03906 94.0268 1.03906 96.7835C1.03906 110.181 11.8619 121.044 25.2109 121.044H36.5959L36.9232 120.801C44.5369 119.48 50.3291 112.824 50.3291 104.811C50.3291 104.482 50.3148 104.154 50.2935 103.825Z" fill="#FED141"/>
<path d="M2.33984 88.9206C2.33984 88.9206 2.33984 88.9278 2.33984 88.9206C2.38254 88.8135 2.411 88.6992 2.45369 88.585L2.33984 88.9206Z" fill="#FED141"/>
<path d="M49.1992 84.2217C49.1992 87.2212 48.1319 89.9564 46.3672 92.1061C47.2566 92.4346 48.2172 92.6203 49.2206 92.6203C53.8386 92.6203 57.5885 88.8638 57.5885 84.2217H49.1992Z" fill="#FF6A39"/>
<path d="M41.8023 87.3285C43.5118 87.3285 44.8976 85.9376 44.8976 84.2218C44.8976 82.5061 43.5118 81.1152 41.8023 81.1152C40.0928 81.1152 38.707 82.5061 38.707 84.2218C38.707 85.9376 40.0928 87.3285 41.8023 87.3285Z" fill="black"/>
<path d="M42.7995 84.1147C43.4676 84.1147 44.0092 83.5711 44.0092 82.9006C44.0092 82.2301 43.4676 81.6865 42.7995 81.6865C42.1314 81.6865 41.5898 82.2301 41.5898 82.9006C41.5898 83.5711 42.1314 84.1147 42.7995 84.1147Z" fill="white"/>
<path d="M188.349 129.035C182.102 129.035 176.174 131.428 171.691 135.584L128.941 139.112C122.316 139.662 116.197 142.876 111.984 148.032C107.765 153.188 105.815 159.837 106.569 166.465L117.378 261.363L166.155 255.771L158.229 186.14L174.573 184.79L207.447 264.998L252.852 246.251L225.927 180.548L254.062 178.227C264.629 177.363 273.552 169.728 275.971 159.216L282.354 129.035H188.349Z" fill="white"/>
<path d="M182.301 122.587H13.6602V128.322H182.301V122.587Z" fill="black"/>
<path d="M83.3964 128.321H81.2617V281.51H83.3964V128.321Z" fill="black"/>
<path d="M74.5644 217.592H72.4297V297H74.5644V217.592Z" fill="black"/>
<path d="M240.296 153.674H191.077C177.386 153.674 166.293 142.533 166.293 128.8H240.296V153.674Z" fill="black"/>
<path d="M245.453 161.722C244.115 161.722 242.77 161.28 241.653 160.373C239.056 158.266 238.651 154.445 240.75 151.838L264.181 122.75C266.281 120.144 270.087 119.737 272.685 121.843C275.282 123.95 275.687 127.771 273.588 130.378L250.157 159.466C248.961 160.951 247.218 161.722 245.453 161.722Z" fill="black"/>
<path d="M232.462 161.409C229.388 161.409 226.285 160.48 223.596 158.559L172.733 122.215L149.515 125.972C141.175 127.322 133.32 121.63 131.975 113.26C130.63 104.89 136.301 97.0053 144.641 95.6555L174.049 90.892C178.02 90.2493 182.083 91.1991 185.356 93.5416L229.608 125.158L256.612 91.6348C261.928 85.043 271.555 84.0146 278.13 89.3494C284.698 94.6843 285.722 104.347 280.407 110.946L244.352 155.703C241.356 159.452 236.93 161.409 232.462 161.409Z" fill="#FED141"/>
<path d="M43.4261 269.94C47.191 269.94 50.2429 266.877 50.2429 263.098C50.2429 259.32 47.191 256.257 43.4261 256.257C39.6613 256.257 36.6094 259.32 36.6094 263.098C36.6094 266.877 39.6613 269.94 43.4261 269.94Z" fill="black"/>
<path d="M60.8381 236.475C62.7205 236.475 64.2465 234.943 64.2465 233.054C64.2465 231.164 62.7205 229.633 60.8381 229.633C58.9557 229.633 57.4297 231.164 57.4297 233.054C57.4297 234.943 58.9557 236.475 60.8381 236.475Z" fill="black"/>
<path d="M239.229 45.2423C240.604 45.2423 241.719 44.1232 241.719 42.7427C241.719 41.3623 240.604 40.2432 239.229 40.2432C237.853 40.2432 236.738 41.3623 236.738 42.7427C236.738 44.1232 237.853 45.2423 239.229 45.2423Z" fill="black"/>
<path d="M220.85 45.2423C222.225 45.2423 223.34 44.1232 223.34 42.7427C223.34 41.3623 222.225 40.2432 220.85 40.2432C219.474 40.2432 218.359 41.3623 218.359 42.7427C218.359 44.1232 219.474 45.2423 220.85 45.2423Z" fill="black"/>
<path d="M230.22 54.3622V44.7852H230.128C230.149 44.5495 230.163 44.3139 230.163 44.071C230.163 39.1647 226.186 35.1797 221.304 35.1797C216.423 35.1797 212.445 39.1719 212.445 44.071C212.445 48.9702 216.423 52.9624 221.304 52.9624C223.788 52.9624 226.036 51.9269 227.651 50.2629V56.9403H233.899V54.3622H230.22ZM221.304 50.3843C217.839 50.3843 215.014 47.549 215.014 44.071C215.014 40.5931 217.832 37.7578 221.304 37.7578C224.777 37.7578 227.595 40.5859 227.595 44.071C227.595 47.5562 224.777 50.3843 221.304 50.3843Z" fill="black"/>
<path d="M240.367 52.9624C235.478 52.9624 231.508 48.9702 231.508 44.071C231.508 39.1719 235.485 35.1797 240.367 35.1797C245.248 35.1797 249.226 39.1719 249.226 44.071C249.226 48.9702 245.255 52.9624 240.367 52.9624ZM240.367 37.7578C236.901 37.7578 234.077 40.5859 234.077 44.071C234.077 47.5562 236.894 50.3843 240.367 50.3843C243.839 50.3843 246.657 47.549 246.657 44.071C246.657 40.5931 243.839 37.7578 240.367 37.7578Z" fill="black"/>
<path d="M235.754 68.2742V65.5461C237.127 65.5461 238.444 65.0247 239.447 64.082L241.304 66.0746C239.796 67.4957 237.825 68.2742 235.754 68.2742Z" fill="black"/>
<path d="M35.6558 102.726H24.3633C24.3633 108.989 29.4225 114.067 35.6629 114.067C38.7796 114.067 41.3127 111.531 41.3127 108.396C41.3056 105.268 38.7796 102.726 35.6558 102.726Z" fill="#FED141"/>
<path d="M35.6549 115.109C28.8524 115.109 23.3164 109.553 23.3164 102.725V101.683H35.6549C39.3408 101.683 42.3436 104.696 42.3436 108.396C42.3436 112.095 39.3479 115.109 35.6549 115.109ZM25.4511 103.775C25.9705 108.967 30.3538 113.024 35.6549 113.024C38.1952 113.024 40.2659 110.945 40.2659 108.396C40.2659 105.846 38.1952 103.768 35.6549 103.768H25.4511V103.775Z" fill="black"/>
<path d="M288.894 280.439L276.535 194.374H283.344C287.108 194.374 290.389 191.782 291.264 188.104L309.786 110.517C311.316 104.118 306.484 97.9693 299.924 97.9693H297.44C295.469 82.0934 281.95 69.7598 265.605 69.7598V71.9023C280.768 71.9023 293.335 83.2789 295.284 97.9693H288.524C288.795 100.355 288.652 102.84 288.055 105.339L282.334 129.035L275.951 159.216C273.532 169.736 264.609 177.363 254.042 178.227L227.024 180.455L225.978 177.899L224.007 178.713L251.281 245.252C241.02 249.387 230.311 251.972 219.303 252.993V153.674H217.169V253.186C214.33 253.393 211.469 253.5 208.594 253.5C208.523 253.5 208.452 253.5 208.381 253.5C206.901 253.5 205.442 253.622 204.019 253.864L166.634 162.644C164.534 157.524 164.3 151.803 165.972 146.533L163.937 145.883C162.115 151.632 162.371 157.881 164.655 163.458L201.899 254.322C192.577 256.743 185.184 264.313 183.362 274.19L182.409 279.346C184.679 279.767 186.963 280.131 189.254 280.446H139.11C152.196 278.839 164.94 275.432 177.15 270.247L166.683 245.409L156.672 175.67L154.558 175.978L164.463 244.937C150.837 250.465 136.413 253.272 121.549 253.272C121.478 253.272 121.407 253.272 121.335 253.272C109.097 253.25 98.5441 261.885 96.3169 273.961L95.3634 279.117C98.2523 279.653 101.163 280.096 104.087 280.453H56.3555V282.595H323V280.453H288.894V280.439ZM227.949 280.439C240.408 278.746 252.548 275.425 264.203 270.476L253.857 245.923L232.731 194.374H274.186L286.546 280.439H227.949Z" fill="black"/>
<path d="M273.048 187.362H261.371V185.219H273.048C275.958 185.219 278.47 183.234 279.153 180.391C282.618 165.894 294.011 118.238 294.993 113.646L297.077 114.095C296.088 118.709 284.696 166.387 281.224 180.891C280.313 184.698 276.954 187.362 273.048 187.362Z" fill="white"/>
<path d="M50.1795 83.1504C49.6315 76.2016 43.8394 70.7168 36.7736 70.7168C29.352 70.7168 23.3179 76.7729 23.3179 84.2217C23.3179 87.8639 24.7695 91.1776 27.1177 93.6058C24.8193 94.2771 22.4142 94.6342 19.9522 94.6342H13.3347C9.06532 94.6342 5.20864 92.2632 3.26608 88.4495L1.47294 88.2424C1.39466 88.4495 1.32351 88.6638 1.25235 88.878L1.20966 89.0066C0.405591 91.5133 0 94.1271 0 96.7838C0 110.739 11.3067 122.087 25.2107 122.087H36.9301L36.859 121.872C45.0704 120.566 51.3607 113.41 51.3607 104.811C51.3607 100.412 49.6671 96.4053 46.9063 93.3916C47.6463 93.5772 48.4148 93.6915 49.2117 93.6915C54.4133 93.6915 58.6471 89.4422 58.6471 84.2217V83.1504H50.1795ZM25.4028 84.2217C25.4028 77.9227 30.5047 72.8022 36.7807 72.8022C43.0567 72.8022 48.1586 77.9227 48.1586 84.2217C48.1586 90.5206 43.0567 95.6412 36.7807 95.6412C30.5047 95.6412 25.4028 90.5135 25.4028 84.2217ZM34.155 120.001C25.8084 120.001 19.0201 113.188 19.0201 104.811H16.9352C16.9352 111.36 20.5855 117.073 25.9507 120.001H25.2036C12.4524 120.001 2.07777 109.589 2.07777 96.7838C2.07777 94.9699 2.28412 93.1844 2.68971 91.4419C5.19441 94.7413 9.09378 96.7196 13.3276 96.7196H19.9451C23.0618 96.7196 26.1073 96.1982 28.9677 95.2055C31.1736 96.7838 33.8562 97.7265 36.7665 97.7265C39.9827 97.7265 42.9357 96.5839 45.2554 94.6913C47.7388 97.3409 49.2758 100.897 49.2758 104.811C49.29 113.188 42.4946 120.001 34.155 120.001ZM49.2188 91.549C48.8417 91.549 48.4717 91.5204 48.1088 91.4633C49.2687 89.6565 50.0016 87.5568 50.1795 85.2929H56.4341C55.9218 88.828 52.8834 91.549 49.2188 91.549Z" fill="black"/>
<path d="M246.331 98.5621V100.705C246.864 100.705 247.391 100.726 247.917 100.755L229.424 123.708L208.874 109.025V102.247H206.739V107.496L198.393 101.533L211.564 86.8712C215.356 82.6505 220.785 80.2224 226.449 80.2224H228.051C228.869 88.1567 235.565 94.3557 243.684 94.3557C252.35 94.3557 259.402 87.2783 259.402 78.5798H257.267C257.267 86.0999 251.176 92.2132 243.684 92.2132C236.746 92.2132 231.018 86.9641 230.207 80.2224H233.9V80.2938C243.114 80.2938 250.757 73.5663 252.229 64.7393C248.942 70.0027 243.114 73.5092 236.461 73.5092C235.586 73.5092 234.732 73.4449 233.892 73.3307V78.087H226.435C220.166 78.087 214.161 80.7651 209.963 85.4429L196.628 100.29L185.976 92.6845C182.446 90.1635 178.156 89.1566 173.879 89.8493L155.073 92.8917L150.76 82.8005C148.306 77.0586 142.684 73.3307 136.458 73.3307H76.7152C71.9549 73.3307 68.7528 78.2156 70.6242 82.6005L90.1495 128.321H170.2L155.941 94.9199L174.221 91.9632C177.935 91.3633 181.671 92.2346 184.738 94.4271L229.808 126.629L250.429 101.026C263.067 103.019 272.765 114.017 272.765 127.243H274.9C274.907 111.431 262.085 98.5621 246.331 98.5621Z" fill="black"/>
<path d="M217.873 29.4093H246.741C251.338 29.4093 255.059 33.1444 255.059 37.7579V40.6003H255.237V47.0992C255.323 47.0992 255.408 47.0849 255.501 47.0849C256.853 47.0849 258.112 47.4992 259.151 48.2133V22.0963C259.151 16.0759 254.291 11.1981 248.285 11.1981H229.023C222.861 11.1981 217.866 6.18467 217.866 0C209.775 0 203.215 6.58461 203.215 14.7047C203.215 22.8247 209.783 29.4093 217.873 29.4093Z" fill="black"/>
<path d="M125.277 112.255C128.815 108.271 127.63 101.417 122.631 96.9453C117.632 92.4739 110.712 92.0785 107.175 96.0622C103.637 100.046 104.822 106.9 109.821 111.372C114.82 115.843 121.74 116.239 125.277 112.255Z" fill="white"/>
</g>
<defs>
<clipPath id="clip0">
<rect width="323" height="297" fill="white"/>
</clipPath>
</defs>
</svg>

<svg width="323" height="297" fill="none" xmlns="http://www.w3.org/2000/svg"><g clip-path="url(#clip0)"><path d="M267.534 79.165h-12.296V60.111c.085 0 .171.014.263.014 3.587 0 6.497-2.92 6.497-6.52 0-3.6-2.91-6.52-6.497-6.52-.085 0-.17.007-.263.014V40.6h-.178v-2.842c0-4.614-3.721-8.349-8.318-8.349h-28.868v25.446c0 9.427 6.966 17.218 16.017 18.483v5.827h-7.45a21.09 21.09 0 00-15.683 6.999l-44.828 49.899 5.756-.479a24.473 24.473 0 0116.658-6.549h93.99l5.721-23.696c3.217-13.333-6.845-26.174-20.521-26.174zm-217.24 24.66l-.022-.286a24.759 24.759 0 00-.071-.721c-.014-.093-.021-.178-.036-.271a16.55 16.55 0 00-.384-1.878l-.064-.236a27.326 27.326 0 00-.22-.722 15.413 15.413 0 00-.818-1.971c-.03-.05-.05-.1-.079-.157-.128-.25-.263-.492-.398-.735a15.769 15.769 0 00-1.16-1.728c-.022-.022-.036-.05-.057-.072a11.705 11.705 0 00-.627-.75 14.511 14.511 0 00-1.038-1.057 12.424 12.424 0 003.87-9.027c0-6.884-5.557-12.462-12.416-12.462-6.86 0-12.417 5.578-12.417 12.462 0 3.985 1.871 7.527 4.775 9.806a26.422 26.422 0 01-9.18 1.65h-6.617c-4.796 0-8.952-2.743-10.994-6.75a24.325 24.325 0 00-1.302 7.864c0 13.397 10.823 24.26 24.172 24.26h11.385l.327-.243c7.614-1.321 13.406-7.977 13.406-15.99 0-.329-.014-.657-.035-.986z" fill="#FED141"/><path d="M2.34 88.92s0 .008 0 0c.043-.106.071-.22.114-.335l-.114.336z" fill="#FED141"/><path d="M49.2 84.222c0 3-1.068 5.734-2.833 7.884a8.22 8.22 0 002.854.514c4.618 0 8.368-3.756 8.368-8.398h-8.39z" fill="#FF6A39"/><path d="M41.802 87.329a3.101 3.101 0 003.096-3.107 3.101 3.101 0 00-3.096-3.107 3.101 3.101 0 00-3.095 3.107 3.101 3.101 0 003.095 3.107z" fill="#000"/><path d="M42.8 84.115c.668 0 1.21-.544 1.21-1.214 0-.67-.542-1.215-1.21-1.215-.669 0-1.21.544-1.21 1.215 0 .67.541 1.214 1.21 1.214zm145.549 44.92a24.508 24.508 0 00-16.658 6.549l-42.75 3.528a24.51 24.51 0 00-16.957 8.92 24.695 24.695 0 00-5.415 18.433l10.809 94.898 48.777-5.592-7.926-69.631 16.344-1.35 32.874 80.208 45.405-18.747-26.925-65.703 28.135-2.321c10.567-.864 19.49-8.499 21.909-19.011l6.383-30.181h-94.005z" fill="#fff"/><path d="M182.301 122.587H13.661v5.735H182.3v-5.735z" fill="#000"/><path d="M83.396 128.321h-2.134V281.51h2.134V128.321zm-8.832 89.271H72.43V297h2.134v-79.408zm165.732-63.918h-49.219c-13.691 0-24.784-11.141-24.784-24.874h74.003v24.874z" fill="#000"/><path d="M245.453 161.722a6.009 6.009 0 01-3.8-1.349 6.085 6.085 0 01-.903-8.535l23.431-29.088a6.034 6.034 0 018.504-.907 6.085 6.085 0 01.903 8.535l-23.431 29.088a6.02 6.02 0 01-4.704 2.256z" fill="#000"/><path d="M232.462 161.409c-3.074 0-6.177-.929-8.866-2.85l-50.863-36.344-23.218 3.757c-8.34 1.35-16.195-4.342-17.54-12.712-1.345-8.37 4.326-16.255 12.666-17.605l29.408-4.763a15.239 15.239 0 0111.307 2.65l44.252 31.616 27.004-33.523c5.316-6.592 14.943-7.62 21.518-2.286 6.568 5.335 7.592 14.998 2.277 21.597l-36.055 44.757c-2.996 3.749-7.422 5.706-11.89 5.706z" fill="#FED141"/><path d="M43.426 269.94c3.765 0 6.817-3.063 6.817-6.842 0-3.778-3.052-6.841-6.817-6.841s-6.817 3.063-6.817 6.841c0 3.779 3.052 6.842 6.817 6.842zm17.412-33.465a3.415 3.415 0 003.408-3.421 3.414 3.414 0 00-3.408-3.421 3.414 3.414 0 00-3.408 3.421 3.415 3.415 0 003.408 3.421zM239.229 45.242a2.495 2.495 0 002.49-2.5 2.495 2.495 0 00-2.49-2.499 2.495 2.495 0 00-2.491 2.5c0 1.38 1.115 2.5 2.491 2.5zm-18.379 0a2.495 2.495 0 002.49-2.5 2.495 2.495 0 00-2.49-2.499 2.495 2.495 0 00-2.491 2.5c0 1.38 1.115 2.5 2.491 2.5z" fill="#000"/><path d="M230.22 54.362v-9.577h-.092c.021-.235.035-.471.035-.714 0-4.906-3.977-8.891-8.859-8.891-4.881 0-8.859 3.992-8.859 8.891 0 4.9 3.978 8.891 8.859 8.891a8.822 8.822 0 006.347-2.7v6.678h6.248v-2.578h-3.679zm-8.916-3.978c-3.465 0-6.29-2.835-6.29-6.313 0-3.478 2.818-6.313 6.29-6.313 3.473 0 6.291 2.828 6.291 6.313s-2.818 6.313-6.291 6.313z" fill="#000"/><path d="M240.367 52.962c-4.889 0-8.859-3.992-8.859-8.891 0-4.9 3.977-8.891 8.859-8.891 4.881 0 8.859 3.992 8.859 8.891 0 4.9-3.971 8.891-8.859 8.891zm0-15.204c-3.466 0-6.29 2.828-6.29 6.313s2.817 6.313 6.29 6.313c3.472 0 6.29-2.835 6.29-6.313 0-3.478-2.818-6.313-6.29-6.313zm-4.613 30.516v-2.728c1.373 0 2.69-.521 3.693-1.464l1.857 1.993a8.059 8.059 0 01-5.55 2.2z" fill="#000"/><path d="M35.656 102.726H24.363c0 6.263 5.06 11.341 11.3 11.341 3.117 0 5.65-2.536 5.65-5.671-.007-3.128-2.533-5.67-5.657-5.67z" fill="#FED141"/><path d="M35.655 115.109c-6.803 0-12.339-5.556-12.339-12.384v-1.042h12.339c3.686 0 6.689 3.013 6.689 6.713 0 3.699-2.996 6.713-6.69 6.713zM25.45 103.775c.52 5.192 4.903 9.249 10.204 9.249 2.54 0 4.61-2.079 4.61-4.628 0-2.55-2.07-4.628-4.61-4.628H25.45v.007zm263.444 176.664l-12.359-86.065h6.809a8.15 8.15 0 007.92-6.27l18.522-77.587c1.53-6.399-3.302-12.548-9.862-12.548h-2.484c-1.971-15.876-15.49-28.21-31.835-28.21v2.143c15.163 0 27.73 11.377 29.679 26.067h-6.76a21.316 21.316 0 01-.469 7.37l-5.721 23.696-6.383 30.181c-2.419 10.52-11.342 18.147-21.909 19.011l-27.018 2.228-1.046-2.556-1.971.814 27.274 66.539a113.28 113.28 0 01-31.978 7.741v-99.319h-2.134v99.512c-2.839.207-5.7.314-8.575.314h-.213c-1.48 0-2.939.122-4.362.364l-37.385-91.22a23.666 23.666 0 01-.662-16.111l-2.035-.65a25.866 25.866 0 00.718 17.575l37.244 90.864c-9.322 2.421-16.715 9.991-18.537 19.868l-.953 5.156c2.27.421 4.554.785 6.845 1.1H139.11a141.078 141.078 0 0038.04-10.199l-10.467-24.838-10.011-69.739-2.114.308 9.905 68.959c-13.626 5.528-28.05 8.335-42.914 8.335h-.214c-12.238-.022-22.79 8.613-25.018 20.689l-.954 5.156c2.89.536 5.8.979 8.724 1.336H56.355v2.142H323v-2.142h-34.106v-.014zm-60.945 0a141.175 141.175 0 0036.254-9.963l-10.346-24.553-21.126-51.549h41.455l12.36 86.065h-58.597z" fill="#000"/><path d="M273.048 187.362h-11.677v-2.143h11.677a6.269 6.269 0 006.105-4.828c3.465-14.497 14.858-62.153 15.84-66.745l2.084.449c-.989 4.614-12.381 52.292-15.853 66.796-.911 3.807-4.27 6.471-8.176 6.471z" fill="#fff"/><path d="M50.18 83.15c-.548-6.948-6.34-12.433-13.406-12.433-7.422 0-13.456 6.056-13.456 13.505a13.47 13.47 0 003.8 9.384 25.526 25.526 0 01-7.166 1.028h-6.617c-4.27 0-8.126-2.37-10.069-6.184l-1.793-.208c-.078.207-.15.422-.22.636l-.043.129A25.41 25.41 0 000 96.784c0 13.955 11.307 25.303 25.21 25.303h11.72l-.071-.215c8.211-1.306 14.502-8.462 14.502-17.061 0-4.399-1.694-8.406-4.455-11.42.74.186 1.509.3 2.306.3 5.201 0 9.435-4.249 9.435-9.47v-1.07H50.18zm-24.777 1.072c0-6.3 5.102-11.42 11.378-11.42s11.378 5.12 11.378 11.42c0 6.299-5.102 11.42-11.378 11.42s-11.378-5.129-11.378-11.42zM34.155 120c-8.347 0-15.135-6.813-15.135-15.19h-2.085c0 6.549 3.65 12.262 9.016 15.19h-.747c-12.752 0-23.126-10.412-23.126-23.217 0-1.814.206-3.6.612-5.342a13.32 13.32 0 0010.638 5.278h6.617c3.117 0 6.162-.522 9.023-1.514a13.35 13.35 0 007.799 2.52c3.216 0 6.169-1.142 8.488-3.035 2.484 2.65 4.02 6.206 4.02 10.12.015 8.377-6.78 15.19-15.12 15.19zm15.064-28.452a7.13 7.13 0 01-1.11-.086 13.318 13.318 0 002.07-6.17h6.255c-.512 3.535-3.55 6.256-7.215 6.256zm197.112 7.014v2.143c.533 0 1.06.021 1.586.05l-18.493 22.953-20.55-14.683v-6.778h-2.135v5.249l-8.346-5.963 13.171-14.662a20.053 20.053 0 0114.885-6.649h1.602c.818 7.935 7.514 14.134 15.633 14.134 8.666 0 15.718-7.078 15.718-15.776h-2.135c0 7.52-6.091 13.633-13.583 13.633-6.938 0-12.666-5.249-13.477-11.99h3.693v.07c9.214 0 16.857-6.727 18.329-15.554-3.287 5.264-9.115 8.77-15.768 8.77a19.02 19.02 0 01-2.569-.178v4.756h-7.457a22.164 22.164 0 00-16.472 7.356l-13.335 14.847-10.652-7.606a16.215 16.215 0 00-12.097-2.835l-18.806 3.043L150.76 82.8c-2.454-5.742-8.076-9.47-14.302-9.47H76.715c-4.76 0-7.962 4.885-6.09 9.27l19.525 45.72h80.05l-14.259-33.4 18.28-2.957c3.714-.6 7.45.272 10.517 2.464l45.07 32.202 20.621-25.603c12.638 1.993 22.336 12.991 22.336 26.217h2.135c.007-15.812-12.815-28.68-28.569-28.68zM217.873 29.41h28.868c4.597 0 8.318 3.734 8.318 8.348V40.6h.178v6.5c.086 0 .171-.015.264-.015 1.352 0 2.611.414 3.65 1.128V22.096c0-6.02-4.86-10.898-10.866-10.898h-19.262c-6.162 0-11.157-5.013-11.157-11.198-8.091 0-14.651 6.585-14.651 14.705 0 8.12 6.568 14.704 14.658 14.704z" fill="#000"/><path d="M125.277 112.255c3.538-3.984 2.353-10.838-2.646-15.31-4.999-4.471-11.919-4.866-15.456-.883-3.538 3.984-2.353 10.838 2.646 15.31 4.999 4.471 11.919 4.867 15.456.883z" fill="#fff"/></g><defs><clipPath id="clip0"><path fill="#fff" d="M0 0h323v297H0z"/></clipPath></defs></svg>
